flaticon/essential/street.svg

<svg xmlns="http://www.w3.org/2000/svg" width="32" height="32" viewBox="0 0 24 24">
    <path d="M 17.199219 4.800781 L 12.398438 4.800781 L 12.398438 3.960938 C 13.3125 3.773438 14 2.964844 14 2 C 14 0.898438 13.101562 0 12 0 C 10.898438 0 10 0.898438 10 2 C 10 2.964844 10.6875 3.773438 11.601562 3.960938 L 11.601562 4.800781 L 6.800781 4.800781 C 5.257812 4.800781 4 6.054688 4 7.601562 C 4 9.144531 5.257812 10.398438 6.800781 10.398438 L 11.601562 10.398438 L 11.601562 20 L 9.601562 20 L 9.601562 21.601562 L 8.398438 21.601562 L 8.398438 24 L 15.601562 24 L 15.601562 21.601562 L 14.398438 21.601562 L 14.398438 20 L 12.398438 20 L 12.398438 10.398438 L 17.199219 10.398438 C 18.742188 10.398438 20 9.144531 20 7.601562 C 20 6.054688 18.742188 4.800781 17.199219 4.800781 Z M 10.800781 2 C 10.800781 1.339844 11.339844 0.800781 12 0.800781 C 12.660156 0.800781 13.199219 1.339844 13.199219 2 C 13.199219 2.660156 12.660156 3.199219 12 3.199219 C 11.339844 3.199219 10.800781 2.660156 10.800781 2 Z M 14.800781 22.398438 L 14.800781 23.199219 L 9.199219 23.199219 L 9.199219 22.398438 Z M 13.601562 21.601562 L 10.398438 21.601562 L 10.398438 20.800781 L 13.601562 20.800781 Z M 17.199219 9.601562 L 6.800781 9.601562 C 5.695312 9.601562 4.800781 8.703125 4.800781 7.601562 C 4.800781 6.496094 5.695312 5.601562 6.800781 5.601562 L 17.199219 5.601562 C 18.304688 5.601562 19.199219 6.496094 19.199219 7.601562 C 19.199219 8.703125 18.304688 9.601562 17.199219 9.601562 Z M 17.199219 9.601562"/>
    <path d="M10 7.199219L14 7.199219C14.222656 7.199219 14.398438 7.019531 14.398438 6.800781 14.398438 6.578125 14.222656 6.398438 14 6.398438L10 6.398438C9.777344 6.398438 9.601562 6.578125 9.601562 6.800781 9.601562 7.019531 9.777344 7.199219 10 7.199219zM17.601562 8L6.800781 8C6.578125 8 6.398438 8.179688 6.398438 8.398438 6.398438 8.621094 6.578125 8.800781 6.800781 8.800781L17.601562 8.800781C17.820312 8.800781 18 8.621094 18 8.398438 18 8.179688 17.820312 8 17.601562 8zM17.601562 8"/>
</svg>

<svg xmlns="http://www.w3.org/2000/svg" width="32" height="32" viewBox="0 0 24 24">
    <path d="M17.2 4.8h-4.802v-.84A2.006 2.006 0 0 0 14 2c0-1.102-.898-2-2-2-1.102 0-2 .898-2 2 0 .965.688 1.773 1.602 1.96v.84H6.8A2.803 2.803 0 0 0 4 7.603a2.802 2.802 0 0 0 2.8 2.796h4.802V20h-2v1.602H8.398V24h7.204v-2.398h-1.204V20h-2v-9.602H17.2c1.543 0 2.801-1.253 2.801-2.796C20 6.055 18.742 4.8 17.2 4.8zM10.8 2c0-.66.54-1.2 1.2-1.2.66 0 1.2.54 1.2 1.2 0 .66-.54 1.2-1.2 1.2-.66 0-1.2-.54-1.2-1.2zm4 20.398v.801H9.2v-.8zm-1.198-.796h-3.204V20.8h3.204zm3.597-12H6.801a1.999 1.999 0 1 1 0-4h10.398a1.999 1.999 0 1 1 0 4zm0 0"/>
    <path d="M10 7.2h4c.223 0 .398-.18.398-.4A.398.398 0 0 0 14 6.399h-4a.398.398 0 0 0-.398.403c0 .219.175.398.398.398zm0 0M17.602 8H6.8a.401.401 0 1 0 0 .8h10.8a.401.401 0 0 0 0-.8zm0 0"/>
</svg>
